X: 34592
T: Rival, The
R: hornpipe
M: 4/4
K: Gmajor
BA|:GDGB dGBd|gfed cBAG|ABcd ecAF|GFAF D2 BA|
GDGB dGBd|gfed cBAG|ABcd ecAF|1 G2B2G2 BA:|2 G2B2G2 FG||
|:ADFD ADFD|cDBD A2 GA|BDGD BDGD|dDcD B2 FG|
ADFD ADFD|cDBD A2FG|ABcd ecAF|1 G2B2G2 FG:|2 G2B2G2 BA||

